public/figma-home/group2087329580.svg

<svg preserveAspectRatio="none" width="100%" height="100%" overflow="visible" style="display: block;" viewBox="0 0 21.5 21" fill="none" xmlns="http://www.w3.org/2000/svg">
<g id="Group 2087329580">
<path id="Vector" d="M5.5 0H14.5V4H20V9.755C18.6938 8.84484 17.1163 8.40715 15.5278 8.51413C13.9393 8.62112 12.4348 9.26639 11.2624 10.3435C10.09 11.4206 9.31979 12.8652 9.07884 14.4389C8.83788 16.0126 9.14058 17.6215 9.937 19H0V4H5.5V0ZM7.5 4H12.5V2H7.5V4Z" fill="var(--fill-0, white)"/>
<path id="Vector_2" d="M10.5 15.5C10.5 14.7777 10.6423 14.0625 10.9187 13.3952C11.1951 12.728 11.6002 12.1216 12.1109 11.6109C12.6216 11.1002 13.228 10.6951 13.8952 10.4187C14.5625 10.1423 15.2777 10 16 10C16.7223 10 17.4375 10.1423 18.1048 10.4187C18.772 10.6951 19.3784 11.1002 19.8891 11.6109C20.3998 12.1216 20.8049 12.728 21.0813 13.3952C21.3577 14.0625 21.5 14.7777 21.5 15.5C21.5 16.9587 20.9205 18.3576 19.8891 19.3891C18.8576 20.4205 17.4587 21 16 21C14.5413 21 13.1424 20.4205 12.1109 19.3891C11.0795 18.3576 10.5 16.9587 10.5 15.5ZM18.414 16.5L17 15.086V13.252H15V15.914L17 17.914L18.414 16.5Z" fill="var(--fill-0, white)"/>
</g>
</svg>

<svg xmlns="http://www.w3.org/2000/svg" fill="none" overflow="visible" preserveAspectRatio="none" style="display:block" viewBox="0 0 21.5 21"><g fill="var(--fill-0, white)"><path d="M5.5 0h9v4H20v5.755A7 7 0 0 0 9.937 19H0V4h5.5zm2 4h5V2h-5z"/><path d="M10.5 15.5a5.5 5.5 0 1 1 11 0 5.5 5.5 0 0 1-11 0m7.914 1L17 15.086v-1.834h-2v2.662l2 2z"/></g></svg>
